svg/fluentui-system-icons/ic_fluent_question_circle_20_filled.svg

<svg width="20" height="20" viewBox="0 0 20 20" fill="none" xmlns="http://www.w3.org/2000/svg">
<path d="M10 2C14.4183 2 18 5.58172 18 10C18 14.4183 14.4183 18 10 18C5.58172 18 2 14.4183 2 10C2 5.58172 5.58172 2 10 2ZM10 13.5C9.58579 13.5 9.25 13.8358 9.25 14.25C9.25 14.6642 9.58579 15 10 15C10.4142 15 10.75 14.6642 10.75 14.25C10.75 13.8358 10.4142 13.5 10 13.5ZM10 5.5C8.61929 5.5 7.5 6.61929 7.5 8C7.5 8.27614 7.72386 8.5 8 8.5C8.27614 8.5 8.5 8.27614 8.5 8C8.5 7.17157 9.17157 6.5 10 6.5C10.8284 6.5 11.5 7.17157 11.5 8C11.5 8.36931 11.366 8.71582 11.132 8.98447L11.0256 9.09468L10.9076 9.19439L10.6609 9.37874C10.532 9.47988 10.4165 9.5832 10.3054 9.70162C9.79312 10.2475 9.5 10.988 9.5 12C9.5 12.2761 9.72386 12.5 10 12.5C10.2761 12.5 10.5 12.2761 10.5 12C10.5 11.2422 10.6963 10.7464 11.0346 10.3859L11.11 10.3099L11.1906 10.2372L11.2782 10.1655L11.4967 10.0024L11.6513 9.8771C12.1848 9.40774 12.5 8.72959 12.5 8C12.5 6.61929 11.3807 5.5 10 5.5Z" fill="#212121"/>
</svg>

<svg xmlns="http://www.w3.org/2000/svg" width="20" height="20"><path d="M10 2a8 8 0 1 1 0 16 8 8 0 0 1 0-16Zm0 11.5a.75.75 0 1 0 0 1.5.75.75 0 0 0 0-1.5Zm0-8A2.5 2.5 0 0 0 7.5 8a.5.5 0 0 0 1 0 1.5 1.5 0 1 1 2.632.984l-.106.11-.118.1-.247.185a3.11 3.11 0 0 0-.356.323C9.793 10.248 9.5 10.988 9.5 12a.5.5 0 0 0 1 0c0-.758.196-1.254.535-1.614l.075-.076.08-.073.088-.072.219-.163.154-.125A2.5 2.5 0 0 0 10 5.5Z"/></svg>
